X: 738
T: Yaodong baowei chan
%%abc-version 2.0
%%abcx-abcm2ps-target-version 5.9.1 (29 Sep 2008)
%%abc-creator hum2abc beta
%%abcx-conversion-date 2013/10/02 07:52:30
%%abc-edited-by Helmut Schaffrath
%%humdrum-veritas 2029838230
%%humdrum-veritas-data 2496213090
%%continueall 1
%%barnumbers 0
L: 1/8
M: 2/4
K: G
d2d e [I:setbarnb 1]| 
d2A2 | 
d2B e | 
d4 | 
d3A | 
d2B A | 
BG2A | 
G4 | 
A Bd2 | 
e d B A | 
d3G | 
A B A G | 
A3G | 
D2F E | 
D3E | 
D4 |]  



